assets/Doughnut/Flat/doughnut_flat.svg

<svg width="32" height="32" viewBox="0 0 32 32" fill="none" xmlns="http://www.w3.org/2000/svg">
<path d="M27.32 14C25.67 9.34 21.22 6 16 6C10.78 6 6.33 9.34 4.68 14H4V18C4 24.63 9.37 30 16 30C22.63 30 28 24.63 28 18V14H27.32ZM20.5 17.64C20.5 19.85 18.71 21.64 16.5 21.64H15.5C13.29 21.64 11.5 19.85 11.5 17.64C11.5 15.43 13.29 13.64 15.5 13.64H16.5C18.71 13.64 20.5 15.43 20.5 17.64Z" fill="#F3AD61"/>
<path d="M16 2C9.37 2 4 7.37 4 14C4 20.63 9.37 26 16 26C22.63 26 28 20.63 28 14C28 7.37 22.63 2 16 2ZM20.5 14C20.5 16.21 18.71 18 16.5 18H15.5C13.29 18 11.5 16.21 11.5 14C11.5 11.79 13.29 10 15.5 10H16.5C18.71 10 20.5 11.79 20.5 14Z" fill="#6D4534"/>
<path d="M12.85 7.75997C12.65 7.95997 12.31 7.95997 12.11 7.75997L11.32 6.97997C11.12 6.77997 11.12 6.43997 11.32 6.23997C11.52 6.03997 11.86 6.03997 12.06 6.23997L12.84 7.01997C13.05 7.21997 13.05 7.55997 12.85 7.75997Z" fill="#00A6ED"/>
<path d="M6.24003 14.02C6.04003 14.22 6.04003 14.56 6.24003 14.76C6.44003 14.97 6.78003 14.97 6.98003 14.76L7.76003 13.98C7.96003 13.78 7.96003 13.44 7.76003 13.24C7.56003 13.04 7.22003 13.04 7.02003 13.24L6.24003 14.02Z" fill="#00A6ED"/>
<path d="M23.24 16.76C23.04 16.56 23.04 16.22 23.24 16.02L24.02 15.24C24.22 15.04 24.56 15.04 24.76 15.24C24.96 15.44 24.96 15.78 24.76 15.98L23.98 16.76C23.78 16.97 23.44 16.97 23.24 16.76Z" fill="#00A6ED"/>
<path d="M11.76 21.76C11.56 21.96 11.22 21.96 11.02 21.76L10.24 20.98C10.04 20.78 10.04 20.44 10.24 20.24C10.44 20.04 10.78 20.04 10.98 20.24L11.76 21.02C11.97 21.22 11.97 21.56 11.76 21.76Z" fill="#00A6ED"/>
<path d="M21.24 8.01997C21.04 8.21997 21.04 8.55997 21.24 8.75997C21.44 8.96997 21.78 8.96997 21.98 8.75997L22.76 7.97997C22.96 7.77997 22.96 7.43997 22.76 7.23997C22.56 7.03997 22.22 7.03997 22.02 7.23997L21.24 8.01997Z" fill="#00A6ED"/>
<path d="M16.24 6.01997C16.04 6.21997 16.04 6.55997 16.24 6.75997C16.44 6.96997 16.78 6.96997 16.98 6.75997L17.76 5.97997C17.96 5.77997 17.96 5.43997 17.76 5.23997C17.56 5.03997 17.22 5.03997 17.02 5.23997L16.24 6.01997Z" fill="#FF6DC6"/>
<path d="M24.02 11.76C24.22 11.96 24.56 11.96 24.76 11.76C24.97 11.56 24.97 11.22 24.76 11.02L23.98 10.24C23.78 10.04 23.44 10.04 23.24 10.24C23.04 10.44 23.04 10.78 23.24 10.98L24.02 11.76Z" fill="#FF6DC6"/>
<path d="M8.24003 9.84993C8.04003 9.64993 8.04003 9.30993 8.24003 9.10993L9.02003 8.32993C9.22003 8.12993 9.56003 8.12993 9.76003 8.32993C9.96003 8.52993 9.96003 8.86993 9.76003 9.06993L8.98003 9.84993C8.78003 10.0499 8.44003 10.0499 8.24003 9.84993Z" fill="#FF6DC6"/>
<path d="M14.24 23.02C14.04 23.22 14.04 23.56 14.24 23.76C14.44 23.97 14.78 23.97 14.98 23.76L15.76 22.98C15.96 22.78 15.96 22.44 15.76 22.24C15.56 22.04 15.22 22.04 15.02 22.24L14.24 23.02Z" fill="#FF6DC6"/>
<path d="M21.76 20.76C21.56 20.96 21.22 20.96 21.02 20.76L20.24 19.98C20.04 19.78 20.04 19.44 20.24 19.24C20.44 19.04 20.78 19.04 20.98 19.24L21.76 20.02C21.97 20.22 21.97 20.56 21.76 20.76Z" fill="#FF6DC6"/>
<path d="M10.02 17.8499C10.22 18.0499 10.56 18.0499 10.76 17.8499C10.97 17.6399 10.97 17.3099 10.76 17.1099L9.98003 16.3299C9.78003 16.1299 9.44003 16.1299 9.24003 16.3299C9.04003 16.5299 9.04003 16.8699 9.24003 17.0699L10.02 17.8499Z" fill="#FF6DC6"/>
</svg>

<svg xmlns="http://www.w3.org/2000/svg" width="32" height="32" fill="none"><path fill="#F3AD61" d="M27.32 14C25.67 9.34 21.22 6 16 6c-5.22 0-9.67 3.34-11.32 8H4v4c0 6.63 5.37 12 12 12s12-5.37 12-12v-4h-.68Zm-6.82 3.64c0 2.21-1.79 4-4 4h-1c-2.21 0-4-1.79-4-4s1.79-4 4-4h1c2.21 0 4 1.79 4 4Z"/><path fill="#6D4534" d="M16 2C9.37 2 4 7.37 4 14s5.37 12 12 12 12-5.37 12-12S22.63 2 16 2Zm4.5 12c0 2.21-1.79 4-4 4h-1c-2.21 0-4-1.79-4-4s1.79-4 4-4h1c2.21 0 4 1.79 4 4Z"/><path fill="#00A6ED" d="M12.85 7.76c-.2.2-.54.2-.74 0l-.79-.78c-.2-.2-.2-.54 0-.74.2-.2.54-.2.74 0l.78.78c.21.2.21.54.01.74ZM6.24 14.02c-.2.2-.2.54 0 .74.2.21.54.21.74 0l.78-.78c.2-.2.2-.54 0-.74-.2-.2-.54-.2-.74 0l-.78.78ZM23.24 16.76c-.2-.2-.2-.54 0-.74l.78-.78c.2-.2.54-.2.74 0 .2.2.2.54 0 .74l-.78.78c-.2.21-.54.21-.74 0ZM11.76 21.76c-.2.2-.54.2-.74 0l-.78-.78c-.2-.2-.2-.54 0-.74.2-.2.54-.2.74 0l.78.78c.21.2.21.54 0 .74ZM21.24 8.02c-.2.2-.2.54 0 .74.2.21.54.21.74 0l.78-.78c.2-.2.2-.54 0-.74-.2-.2-.54-.2-.74 0l-.78.78Z"/><path fill="#FF6DC6" d="M16.24 6.02c-.2.2-.2.54 0 .74.2.21.54.21.74 0l.78-.78c.2-.2.2-.54 0-.74-.2-.2-.54-.2-.74 0l-.78.78ZM24.02 11.76c.2.2.54.2.74 0 .21-.2.21-.54 0-.74l-.78-.78c-.2-.2-.54-.2-.74 0-.2.2-.2.54 0 .74l.78.78ZM8.24 9.85c-.2-.2-.2-.54 0-.74l.78-.78c.2-.2.54-.2.74 0 .2.2.2.54 0 .74l-.78.78c-.2.2-.54.2-.74 0ZM14.24 23.02c-.2.2-.2.54 0 .74.2.21.54.21.74 0l.78-.78c.2-.2.2-.54 0-.74-.2-.2-.54-.2-.74 0l-.78.78ZM21.76 20.76c-.2.2-.54.2-.74 0l-.78-.78c-.2-.2-.2-.54 0-.74.2-.2.54-.2.74 0l.78.78c.21.2.21.54 0 .74ZM10.02 17.85c.2.2.54.2.74 0 .21-.21.21-.54 0-.74l-.78-.78c-.2-.2-.54-.2-.74 0-.2.2-.2.54 0 .74l.78.78Z"/></svg>
